; generated by SuperSlicer 2.4 on 2023-03-19 at 22:36:09 UTC

; 

; external perimeters extrusion width = 0.42mm
; perimeters extrusion width = 0.43mm
; infill extrusion width = 0.43mm
; solid infill extrusion width = 0.43mm
; top infill extrusion width = 0.42mm
; support material extrusion width = 0.42mm
; first layer extrusion width = 0.60mm


M140 S60 ; set bed temperature
G10 P2 R215 ; sets the standby temperature
G10 P2 S215 ; set temperature
;TYPE:Custom
T2
M107
G21 ; set units to millimeters
G90 ; use absolute coordinates
M83 ; use relative distances for extrusion
; Filament gcode
G10 P2 S215 ; set temperature
M116 ; wait for temperature to be reached
M190 S60 ; set bed temperature and wait for it to be reached
M107
;LAYER_CHANGE
;Z:0.25
;HEIGHT:0.25
G1 Z0.25 F18000
G92 E0
G1 E-0.1 F2400
G1 Z0.75 F18000
G1 X34.514 Y39.248
G1 Z0.25
G1 E0.1 F2400
;TYPE:Skirt
;WIDTH:0.52
G1 F1200
G1 X33.341 Y40.365 E0.07852
G1 X32.881 Y40.947 E0.03597
G1 X32.243 Y41.991 E0.0593
G1 X31.768 Y43.114 E0.05911
G1 X31.525 Y43.97 E0.04311
G1 X31.329 Y45.75 E0.08682
G1 X31.329 Y145.75 E4.84714
G1 X31.399 Y146.79 E0.05051
G1 X31.758 Y148.367 E0.07843
G1 X32.222 Y149.469 E0.05792
G1 X33.09 Y150.835 E0.07846
G1 X33.613 Y151.439 E0.03875
G1 X34.448 Y152.196 E0.05464
G1 X35.792 Y153.067 E0.07761
G1 X37.295 Y153.66 E0.07832
G1 X38.868 Y153.952 E0.07754
G1 X103.262 Y157.478 E3.12592
G1 X165.438 Y157.483 E3.0138
G1 X166.642 Y157.251 E0.05944
G1 X263.732 Y118.293 E5.07078
G1 X264.744 Y117.761 E0.05542
G1 X265.733 Y117.048 E0.05908
G1 X266.658 Y116.137 E0.06292
G1 X267.344 Y115.228 E0.05521
G1 X267.787 Y114.451 E0.04338
G1 X268.091 Y113.773 E0.036
G1 X268.455 Y112.605 E0.05929
G1 X268.665 Y110.998 E0.07857
G1 X268.667 Y45.594 E3.17024
G1 X268.553 Y44.37 E0.05959
G1 X268.152 Y42.874 E0.07505
G1 X267.596 Y41.687 E0.06351
G1 X266.859 Y40.6 E0.06368
G1 X265.718 Y39.435 E0.07902
G1 X264.65 Y38.676 E0.06352
G1 X263.331 Y38.044 E0.07088
G1 X262.071 Y37.683 E0.06357
G1 X195.517 Y25.569 E3.27894
G1 X103.438 Y25.517 E4.46319
G1 X102.846 Y25.572 E0.02886
G1 X38.052 Y37.656 E3.19479
G1 X36.336 Y38.181 E0.08699
G1 X35.251 Y38.741 E0.05918
G1 X34.564 Y39.214 E0.04044
G1 E-0.1 F2400
G1 Z0.75 F18000
G1 X257.795 Y109.695
G1 Z0.25
G1 E0.1 F2400
;TYPE:Internal perimeter
;WIDTH:0.6
G1 F1200
G1 X257.644 Y110.185 E0.03056
G1 X257.587 Y110.75 E0.03385
G1 X257.644 Y111.315 E0.03385
G1 X257.811 Y111.857 E0.03385
G1 X258.084 Y112.356 E0.03388
G1 X258.448 Y112.79 E0.0338
G1 X258.892 Y113.145 E0.03385
G1 X259.397 Y113.404 E0.03389
G1 X259.943 Y113.557 E0.0338
G1 X260.509 Y113.6 E0.03385
G1 X261.072 Y113.529 E0.03383
G1 X261.611 Y113.348 E0.03387
G1 X262.102 Y113.065 E0.03384
G1 X262.529 Y112.689 E0.03389
G1 X262.871 Y112.236 E0.03383
G1 X263.117 Y111.725 E0.03385
G1 X263.257 Y111.175 E0.03384
G1 X263.286 Y110.608 E0.03381
G1 X263.201 Y110.046 E0.0339
G1 X263.006 Y109.513 E0.03385
G1 X262.711 Y109.029 E0.03378
G1 X262.332 Y108.621 E0.03324
G1 X261.976 Y108.35 E0.02666
G1 X261.48 Y108.096 E0.03325
G1 X260.934 Y107.943 E0.0338
G1 X260.368 Y107.9 E0.03384
G1 X259.804 Y107.971 E0.03391
G1 X259.266 Y108.152 E0.03382
G1 X258.775 Y108.435 E0.03382
G1 X258.356 Y108.804 E0.03326
G1 X258.078 Y109.154 E0.02662
G1 X257.813 Y109.638 E0.03294
G1 X258.317 Y109.856 F18000
;TYPE:External perimeter
G1 F1200
G1 X258.183 Y110.294 E0.02733
G1 X258.136 Y110.75 E0.02733
G1 X258.183 Y111.206 E0.02733
G1 X258.317 Y111.644 E0.02733
G1 X258.537 Y112.047 E0.02735
G1 X258.831 Y112.397 E0.02731
G1 X259.189 Y112.683 E0.02732
G1 X259.598 Y112.892 E0.02736
G1 X260.039 Y113.017 E0.0273
G1 X260.495 Y113.051 E0.02732
G1 X260.95 Y112.994 E0.02732
G1 X261.385 Y112.848 E0.02735
G1 X261.782 Y112.619 E0.02733
G1 X262.126 Y112.315 E0.02736
G1 X262.402 Y111.95 E0.02731
G1 X262.601 Y111.537 E0.02733
G1 X262.714 Y111.093 E0.02732
G1 X262.737 Y110.635 E0.02731
G1 X262.669 Y110.182 E0.02734
G1 X262.512 Y109.751 E0.02734
G1 X262.273 Y109.36 E0.02729
G1 X261.964 Y109.027 E0.02712
G1 X261.684 Y108.815 E0.02095
G1 X261.279 Y108.608 E0.02713
G1 X260.838 Y108.483 E0.0273
G1 X260.382 Y108.449 E0.02732
G1 X259.926 Y108.506 E0.02738
G1 X259.492 Y108.652 E0.0273
G1 X259.095 Y108.881 E0.02732
G1 X258.754 Y109.182 E0.02713
G1 X258.535 Y109.457 E0.02093
G1 X258.346 Y109.803 E0.02353
;WIPE_START
G1 X257.922 Y109.919 F18000
;WIPE_END
G1 E-0.1 F2400
G1 Z0.75 F18000
G1 X260.563 Y48.593
G1 Z0.25
G1 E0.1 F2400
;TYPE:Internal perimeter
G1 F1200
G1 X261.072 Y48.529 E0.03057
G1 X261.611 Y48.348 E0.03387
G1 X262.102 Y48.065 E0.03384
G1 X262.529 Y47.689 E0.03389
G1 X262.871 Y47.236 E0.03383
G1 X263.117 Y46.725 E0.03385
G1 X263.257 Y46.175 E0.03384
G1 X263.286 Y45.608 E0.03381
G1 X263.201 Y45.046 E0.0339
G1 X263.006 Y44.513 E0.03385
G1 X262.711 Y44.029 E0.03378
G1 X262.332 Y43.621 E0.03324
G1 X261.976 Y43.35 E0.02666
G1 X261.48 Y43.096 E0.03325
G1 X260.934 Y42.943 E0.0338
G1 X260.368 Y42.9 E0.03384
G1 X259.804 Y42.971 E0.03391
G1 X259.266 Y43.152 E0.03382
G1 X258.775 Y43.435 E0.03382
G1 X258.356 Y43.804 E0.03326
G1 X258.078 Y44.154 E0.02662
G1 X257.811 Y44.643 E0.03322
G1 X257.644 Y45.185 E0.03385
G1 X257.587 Y45.75 E0.03385
G1 X257.644 Y46.315 E0.03385
G1 X257.811 Y46.857 E0.03385
G1 X258.084 Y47.356 E0.03388
G1 X258.448 Y47.79 E0.0338
G1 X258.892 Y48.145 E0.03385
G1 X259.397 Y48.404 E0.03389
G1 X259.943 Y48.557 E0.0338
G1 X260.504 Y48.599 E0.03353
G1 X260.495 Y48.051 F18000
;TYPE:External perimeter
G1 F1200
G1 X260.95 Y47.994 E0.02732
G1 X261.385 Y47.848 E0.02735
G1 X261.782 Y47.619 E0.02733
G1 X262.126 Y47.315 E0.02736
G1 X262.402 Y46.95 E0.02731
G1 X262.601 Y46.537 E0.02733
G1 X262.714 Y46.093 E0.02732
G1 X262.737 Y45.635 E0.02731
G1 X262.669 Y45.182 E0.02734
G1 X262.512 Y44.751 E0.02734
G1 X262.273 Y44.36 E0.02729
G1 X261.964 Y44.027 E0.02712
G1 X261.684 Y43.815 E0.02095
G1 X261.279 Y43.608 E0.02713
G1 X260.838 Y43.483 E0.0273
G1 X260.382 Y43.449 E0.02732
G1 X259.926 Y43.506 E0.02738
G1 X259.492 Y43.652 E0.0273
G1 X259.095 Y43.881 E0.02732
G1 X258.754 Y44.182 E0.02713
G1 X258.535 Y44.457 E0.02093
G1 X258.317 Y44.856 E0.02711
G1 X258.183 Y45.294 E0.02732
G1 X258.136 Y45.75 E0.02733
G1 X258.183 Y46.206 E0.02733
G1 X258.317 Y46.644 E0.02732
G1 X258.537 Y47.047 E0.02735
G1 X258.831 Y47.397 E0.02731
G1 X259.189 Y47.683 E0.02732
G1 X259.598 Y47.892 E0.02736
G1 X260.039 Y48.017 E0.0273
G1 X260.436 Y48.046 E0.02374
;WIPE_START
G1 X260.715 Y48.385 F18000
;WIPE_END
G1 E-0.1 F2400
G1 Z0.75 F18000
G1 X174.226 Y77.555
G1 Z0.25
G1 E0.1 F2400
;TYPE:Internal perimeter
G1 F1200
G1 X174.1 Y77.209 E0.02197
G1 X173.861 Y76.816 E0.02744
G1 X173.6 Y76.521 E0.02346
G1 X173.24 Y76.234 E0.02744
G1 X172.815 Y76.016 E0.02849
G1 X172.355 Y75.887 E0.0285
G1 X171.896 Y75.852 E0.02745
G1 X171.505 Y75.892 E0.02344
G1 X171.062 Y76.016 E0.02745
G1 X170.637 Y76.234 E0.02849
G1 X170.263 Y76.532 E0.02849
G1 X169.956 Y76.898 E0.02851
G1 X169.727 Y77.318 E0.02849
G1 X169.586 Y77.774 E0.02847
G1 X169.539 Y78.25 E0.02851
G1 X169.586 Y78.726 E0.02851
G1 X169.727 Y79.182 E0.02847
G1 X169.956 Y79.602 E0.02849
G1 X170.263 Y79.968 E0.02851
G1 X170.637 Y80.266 E0.02849
G1 X171.062 Y80.484 E0.02849
G1 X171.522 Y80.613 E0.0285
G1 X171.998 Y80.649 E0.0285
G1 X172.473 Y80.589 E0.0285
G1 X172.925 Y80.437 E0.02848
G1 X173.339 Y80.198 E0.02849
G1 X173.698 Y79.882 E0.0285
G1 X173.986 Y79.501 E0.0285
G1 X174.193 Y79.071 E0.02846
G1 X174.311 Y78.608 E0.0285
G1 X174.335 Y78.13 E0.0285
G1 X174.264 Y77.658 E0.02849
G1 X174.247 Y77.611 E0.00294
G1 X173.713 Y77.742 F18000
G1 F1200
G1 X173.606 Y77.447 E0.01871
G1 X173.419 Y77.142 E0.02133
G1 X173.222 Y76.919 E0.01775
G1 X172.942 Y76.696 E0.02133
G1 X172.615 Y76.527 E0.02197
G1 X172.26 Y76.428 E0.02198
G1 X171.903 Y76.401 E0.02134
G1 X171.607 Y76.43 E0.01774
G1 X171.262 Y76.527 E0.02134
G1 X170.934 Y76.696 E0.02197
G1 X170.646 Y76.925 E0.02197
G1 X170.409 Y77.208 E0.02199
G1 X170.233 Y77.531 E0.02197
G1 X170.125 Y77.883 E0.02196
G1 X170.088 Y78.25 E0.02198
G1 X170.125 Y78.617 E0.02198
G1 X170.233 Y78.969 E0.02196
G1 X170.409 Y79.292 E0.02197
G1 X170.646 Y79.575 E0.02199
G1 X170.934 Y79.804 E0.02197
G1 X171.262 Y79.973 E0.02197
G1 X171.617 Y80.072 E0.02198
G1 X171.985 Y80.1 E0.02198
G1 X172.35 Y80.054 E0.02197
G1 X172.7 Y79.937 E0.02197
G1 X173.019 Y79.753 E0.02197
G1 X173.295 Y79.509 E0.02198
G1 X173.518 Y79.215 E0.02198
G1 X173.677 Y78.883 E0.02195
G1 X173.768 Y78.526 E0.02198
G1 X173.787 Y78.158 E0.02198
G1 X173.733 Y77.799 E0.02166
G1 X173.2 Y77.929 F18000
;TYPE:External perimeter
G1 F1200
G1 X173.111 Y77.685 E0.01545
G1 X172.978 Y77.467 E0.01523
G1 X172.844 Y77.316 E0.01205
G1 X172.645 Y77.157 E0.01523
G1 X172.414 Y77.038 E0.01545
G1 X172.164 Y76.968 E0.01545
G1 X171.91 Y76.949 E0.01523
G1 X171.709 Y76.969 E0.01204
G1 X171.463 Y77.038 E0.01523
G1 X171.232 Y77.157 E0.01545
G1 X171.03 Y77.318 E0.01545
G1 X170.863 Y77.517 E0.01546
G1 X170.739 Y77.745 E0.01545
G1 X170.663 Y77.992 E0.01545
G1 X170.637 Y78.25 E0.01545
G1 X170.663 Y78.508 E0.01545
G1 X170.739 Y78.755 E0.01545
G1 X170.863 Y78.983 E0.01545
G1 X171.03 Y79.182 E0.01546
G1 X171.232 Y79.343 E0.01545
G1 X171.463 Y79.462 E0.01545
G1 X171.712 Y79.532 E0.01545
G1 X171.971 Y79.551 E0.01546
G1 X172.228 Y79.519 E0.01545
G1 X172.474 Y79.436 E0.01545
G1 X172.698 Y79.307 E0.01546
G1 X172.893 Y79.135 E0.01545
G1 X173.049 Y78.929 E0.01546
G1 X173.161 Y78.695 E0.01545
G1 X173.225 Y78.444 E0.01546
G1 X173.238 Y78.185 E0.01545
G1 X173.209 Y77.988 E0.01188
;WIPE_START
G1 X173.477 Y77.64 F18000
;WIPE_END
G1 E-0.1 F2400
G1 Z0.75 F18000
G1 X179.046 Y133.676
G1 Z0.25
G1 E0.1 F2400
;TYPE:Internal perimeter
G1 F1200
G1 X179.046 Y135.292 E0.09634
G1 X256.831 Y104.085 E4.99732
G1 X256.831 Y53.596 E3.01046
G1 X195.064 Y42.357 E3.74335
G1 X179.046 Y42.357 E0.95511
G1 X179.046 Y133.616 E5.44136
G1 X179.592 Y134.484 F18000
G1 F1200
G1 X256.284 Y103.716 E4.92712
G1 X256.284 Y54.052 E2.96124
G1 X195.015 Y42.904 E3.71323
G1 X179.592 Y42.904 E0.91959
G1 X179.592 Y134.424 E5.45695
G1 X180.138 Y133.676 F18000
;TYPE:External perimeter
G1 F1200
G1 X255.738 Y103.346 E4.85691
G1 X255.738 Y54.508 E2.91203
G1 X194.965 Y43.45 E3.6831
G1 X180.138 Y43.45 E0.88408
G1 X180.138 Y133.616 E5.3762
;WIPE_START
G1 X180.239 Y134.063 F18000
;WIPE_END
G1 E-0.1 F2400
G1 Z0.75 F18000
G1 X172.607 Y36.135
G1 Z0.25
G1 E0.1 F2400
;TYPE:Internal perimeter
G1 F1200
G1 X172.973 Y36.089 E0.02197
G1 X173.425 Y35.937 E0.02848
G1 X173.839 Y35.698 E0.02849
G1 X174.198 Y35.382 E0.0285
G1 X174.486 Y35.001 E0.0285
G1 X174.693 Y34.571 E0.02847
G1 X174.811 Y34.108 E0.0285
G1 X174.835 Y33.63 E0.0285
G1 X174.764 Y33.158 E0.02849
G1 X174.6 Y32.709 E0.02848
G1 X174.361 Y32.316 E0.02744
G1 X174.1 Y32.021 E0.02346
G1 X173.74 Y31.734 E0.02744
G1 X173.315 Y31.516 E0.02849
G1 X172.855 Y31.387 E0.0285
G1 X172.396 Y31.352 E0.02745
G1 X172.005 Y31.392 E0.02343
G1 X171.562 Y31.516 E0.02745
G1 X171.137 Y31.734 E0.02849
G1 X170.763 Y32.032 E0.02849
G1 X170.456 Y32.398 E0.02851
G1 X170.227 Y32.818 E0.02849
G1 X170.086 Y33.274 E0.02847
G1 X170.039 Y33.75 E0.02851
G1 X170.086 Y34.226 E0.02851
G1 X170.227 Y34.682 E0.02847
G1 X170.456 Y35.102 E0.02849
G1 X170.763 Y35.468 E0.02851
G1 X171.137 Y35.766 E0.02849
G1 X171.562 Y35.984 E0.02849
G1 X172.022 Y36.113 E0.0285
G1 X172.498 Y36.149 E0.02849
G1 X172.547 Y36.143 E0.00295
G1 X172.43 Y35.596 F18000
G1 F1200
G1 X172.485 Y35.6 E0.00326
G1 X172.85 Y35.554 E0.02198
G1 X173.2 Y35.437 E0.02196
G1 X173.519 Y35.253 E0.02197
G1 X173.795 Y35.009 E0.02198
G1 X174.018 Y34.715 E0.02198
G1 X174.177 Y34.383 E0.02196
G1 X174.268 Y34.026 E0.02198
G1 X174.287 Y33.658 E0.02198
G1 X174.232 Y33.293 E0.02198
G1 X174.106 Y32.947 E0.02197
G1 X173.919 Y32.642 E0.02133
G1 X173.722 Y32.419 E0.01775
G1 X173.442 Y32.196 E0.02133
G1 X173.115 Y32.027 E0.02197
G1 X172.76 Y31.928 E0.02198
G1 X172.403 Y31.901 E0.02134
G1 X172.107 Y31.93 E0.01774
G1 X171.762 Y32.027 E0.02134
G1 X171.434 Y32.196 E0.02197
G1 X171.146 Y32.425 E0.02197
G1 X170.909 Y32.708 E0.02199
G1 X170.733 Y33.031 E0.02197
G1 X170.625 Y33.383 E0.02196
G1 X170.588 Y33.75 E0.02198
G1 X170.625 Y34.117 E0.02198
G1 X170.733 Y34.469 E0.02196
G1 X170.909 Y34.792 E0.02197
G1 X171.146 Y35.075 E0.02199
G1 X171.434 Y35.304 E0.02197
G1 X171.762 Y35.473 E0.02197
G1 X172.117 Y35.572 E0.02198
G1 X172.37 Y35.591 E0.01513
G1 X172.471 Y35.051 F18000
;TYPE:External perimeter
G1 F1200
G1 X172.728 Y35.019 E0.01545
G1 X172.974 Y34.936 E0.01545
G1 X173.198 Y34.807 E0.01545
G1 X173.393 Y34.635 E0.01545
G1 X173.549 Y34.429 E0.01546
G1 X173.661 Y34.195 E0.01545
G1 X173.725 Y33.944 E0.01546
G1 X173.738 Y33.685 E0.01545
G1 X173.7 Y33.429 E0.01546
G1 X173.611 Y33.185 E0.01545
G1 X173.478 Y32.967 E0.01523
G1 X173.344 Y32.816 E0.01205
G1 X173.145 Y32.657 E0.01522
G1 X172.914 Y32.538 E0.01545
G1 X172.664 Y32.468 E0.01546
G1 X172.41 Y32.449 E0.01523
G1 X172.209 Y32.469 E0.01204
G1 X171.963 Y32.538 E0.01523
G1 X171.732 Y32.657 E0.01545
G1 X171.53 Y32.818 E0.01545
G1 X171.363 Y33.017 E0.01546
G1 X171.239 Y33.245 E0.01545
G1 X171.163 Y33.492 E0.01545
G1 X171.137 Y33.75 E0.01545
G1 X171.163 Y34.008 E0.01545
G1 X171.239 Y34.255 E0.01545
G1 X171.363 Y34.483 E0.01545
G1 X171.53 Y34.682 E0.01546
G1 X171.732 Y34.843 E0.01545
G1 X171.963 Y34.962 E0.01545
G1 X172.212 Y35.032 E0.01546
G1 X172.411 Y35.047 E0.01188
;WIPE_START
G1 X172.691 Y35.385 F18000
;WIPE_END
G1 E-0.1 F2400
G1 Z0.75 F18000
G1 X147.829 Y33.828
G1 Z0.25
G1 E0.1 F2400
;TYPE:Internal perimeter
G1 F1200
G1 X147.836 Y33.733 E0.0057
G1 X147.791 Y33.275 E0.02745
G1 X147.65 Y32.818 E0.02849
G1 X147.421 Y32.398 E0.02849
G1 X147.114 Y32.032 E0.02851
G1 X146.74 Y31.734 E0.02849
G1 X146.315 Y31.516 E0.02849
G1 X145.855 Y31.387 E0.0285
G1 X145.379 Y31.351 E0.02849
G1 X144.904 Y31.411 E0.02849
G1 X144.451 Y31.563 E0.02849
G1 X144.038 Y31.802 E0.02849
G1 X143.679 Y32.118 E0.02849
G1 X143.391 Y32.499 E0.0285
G1 X143.184 Y32.929 E0.02849
G1 X143.066 Y33.392 E0.02849
G1 X143.042 Y33.869 E0.02848
G1 X143.113 Y34.342 E0.0285
G1 X143.276 Y34.791 E0.02849
G1 X143.516 Y35.184 E0.02744
G1 X143.777 Y35.479 E0.02345
G1 X144.137 Y35.766 E0.02744
G1 X144.562 Y35.984 E0.02849
G1 X145.022 Y36.113 E0.0285
G1 X145.498 Y36.149 E0.02849
G1 X145.972 Y36.089 E0.02849
G1 X146.425 Y35.937 E0.02849
G1 X146.839 Y35.698 E0.02849
G1 X147.198 Y35.382 E0.02849
G1 X147.486 Y35.001 E0.0285
G1 X147.693 Y34.571 E0.02848
G1 X147.807 Y34.125 E0.02745
G1 X147.825 Y33.888 E0.01416
G1 X147.284 Y33.787 F18000
G1 F1200
G1 X147.288 Y33.739 E0.00285
G1 X147.252 Y33.383 E0.02134
G1 X147.144 Y33.031 E0.02197
G1 X146.968 Y32.708 E0.02197
G1 X146.731 Y32.425 E0.02198
G1 X146.442 Y32.196 E0.02197
G1 X146.115 Y32.027 E0.02197
G1 X145.76 Y31.928 E0.02198
G1 X145.392 Y31.9 E0.02197
G1 X145.027 Y31.946 E0.02197
G1 X144.677 Y32.063 E0.02197
G1 X144.358 Y32.247 E0.02197
G1 X144.082 Y32.491 E0.02197
G1 X143.859 Y32.785 E0.02198
G1 X143.699 Y33.117 E0.02197
G1 X143.609 Y33.474 E0.02197
G1 X143.59 Y33.842 E0.02196
G1 X143.645 Y34.207 E0.02198
G1 X143.771 Y34.553 E0.02197
G1 X143.958 Y34.858 E0.02133
G1 X144.155 Y35.081 E0.01775
G1 X144.434 Y35.304 E0.02133
G1 X144.762 Y35.473 E0.02198
G1 X145.117 Y35.572 E0.02198
G1 X145.485 Y35.6 E0.02197
G1 X145.85 Y35.554 E0.02197
G1 X146.2 Y35.437 E0.02197
G1 X146.519 Y35.253 E0.02197
G1 X146.795 Y35.009 E0.02197
G1 X147.018 Y34.715 E0.02198
G1 X147.177 Y34.383 E0.02197
G1 X147.266 Y34.036 E0.02134
G1 X147.28 Y33.847 E0.01131
G1 X146.74 Y33.746 F18000
;TYPE:External perimeter
G1 F1200
G1 X146.714 Y33.492 E0.01523
G1 X146.638 Y33.244 E0.01545
G1 X146.514 Y33.017 E0.01545
G1 X146.347 Y32.818 E0.01546
G1 X146.145 Y32.657 E0.01545
G1 X145.914 Y32.538 E0.01545
G1 X145.664 Y32.468 E0.01546
G1 X145.406 Y32.449 E0.01545
G1 X145.149 Y32.481 E0.01545
G1 X144.903 Y32.564 E0.01545
G1 X144.679 Y32.693 E0.01545
G1 X144.484 Y32.865 E0.01545
G1 X144.328 Y33.071 E0.01546
G1 X144.215 Y33.305 E0.01545
G1 X144.151 Y33.556 E0.01545
G1 X144.139 Y33.815 E0.01545
G1 X144.177 Y34.071 E0.01546
G1 X144.266 Y34.315 E0.01545
G1 X144.399 Y34.533 E0.01523
G1 X144.533 Y34.684 E0.01204
G1 X144.732 Y34.843 E0.01523
G1 X144.963 Y34.962 E0.01546
G1 X145.212 Y35.032 E0.01545
G1 X145.471 Y35.051 E0.01545
